modules/hawcons-filled/icons/icon-52-file-mpg.svg

<?xml version="1.0" encoding="UTF-8" standalone="no"?>
<svg width="32px" height="32px" viewBox="0 0 32 32" version="1.1" xmlns="http://www.w3.org/2000/svg" xmlns:xlink="http://www.w3.org/1999/xlink" xmlns:sketch="http://www.bohemiancoding.com/sketch/ns">
    <!-- Generator: Sketch 3.0.3 (7891) - http://www.bohemiancoding.com/sketch -->
    <title>icon 52 file mpg</title>
    <desc>Created with Sketch.</desc>
    <defs></defs>
    <g id="Page-1" stroke="none" stroke-width="1" fill="none" fill-rule="evenodd" sketch:type="MSPage">
        <g id="icon-52-file-mpg" sketch:type="MSArtboardGroup" fill="#929292">
            <path d="M8.00684834,10 C6.34621185,10 5,11.3422643 5,12.9987856 L5,20.0012144 C5,21.6573979 6.33599155,23 8.00684834,23 L24.9931517,23 C26.6537881,23 28,21.6577357 28,20.0012144 L28,12.9987856 C28,11.3426021 26.6640085,10 24.9931517,10 L8.00684834,10 L8.00684834,10 Z M10.5,16 L9,13 L8.5,13 L8,13 L8,20 L9,20 L9,15 L10,17 L10.5,17 L11,17 L12,15 L12,20 L13,20 L13,13 L12.5,13 L12,13 L10.5,16 L10.5,16 Z M14,15 L14,20 L15,20 L15,17 L16.9951185,17 C18.102384,17 19,16.1122704 19,15 C19,13.8954305 18.1061002,13 16.9951185,13 L14,13 L14,15 L14,15 Z M15,14 L15,16 L17.0010434,16 C17.5527519,16 18,15.5561352 18,15 C18,14.4477153 17.5573397,14 17.0010434,14 L15,14 L15,14 Z M24,17 L24,19 L21.9998075,19 C21.4437166,19 21,18.5523709 21,18.0001925 L21,14.9998075 C21,14.4437166 21.4476291,14 21.9998075,14 L25,14 L25,13 L22.0048815,13 C20.897616,13 20,13.8865548 20,15.0059191 L20,17.9940809 C20,19.1019194 20.8938998,20 22.0048815,20 L25,20 L25,19.25 L25,19.25 L25,17 L25,16 L22,16 L22,17 L24,17 L24,17 Z" id="file-mpg" sketch:type="MSShapeGroup"></path>
        </g>
    </g>
</svg>

<svg width="32" height="32" xmlns="http://www.w3.org/2000/svg"><path d="M8.007 10A3.003 3.003 0 0 0 5 12.999V20A2.996 2.996 0 0 0 8.007 23h16.986A3.003 3.003 0 0 0 28 20.001V13A2.996 2.996 0 0 0 24.993 10H8.007zm2.493 6L9 13H8v7h1v-5l1 2h1l1-2v5h1v-7h-1l-1.5 3zm3.5-1v5h1v-3h1.995a2 2 0 0 0 0-4H14v2zm1-1v2h2.001A.997.997 0 0 0 18 15c0-.552-.443-1-.999-1H15zm9 3v2h-2c-.556 0-1-.448-1-1v-3c0-.556.448-1 1-1h3v-1h-2.995A1.998 1.998 0 0 0 20 15.006v2.988c0 1.108.894 2.006 2.005 2.006H25v-4h-3v1h2z" fill="#929292" fill-rule="evenodd"/></svg>
